X: 168
T:Green Fields of France
M:3/4
R:waltz
L:1/8
Z:added by Alf warnock alf0@rogers.com - www.alfwarnock.info/alfs
K:D
FG|"D"A3 A A2|"Bm"d2 d2 c2|"G"B2 B2 G2|"Em"E4 d2|"A7"c3c d2|e4 c2|"D"d2 F2 B2|"A7"A4 FG|
"D"A4 AA|"Bm"d2 d2 c2|"G"B2 B2 G2|"Em"E4 dd|"A7"c2 c2 d2|e4 c2|"D"d2 d2 e2|d4 fg|
"D"a2 a3a|"Bm"a2 g2 f2|"Em"e2 e2 f2|"G"g4 g2|"A7"f2 e2 f2|g2 f2 e2|"D"d2 e2 f2|"A7"e4 a2|
"D"a3a a2|"Bm"a2 g2 f2|"Em"f2 e2 d2|"G"B4 B2|"A7"c3c d2|e4 dc|"D"d2 d2 e2|d4 cd|
"A7"e3e e2|e2 f2 g2|"G"g3a g2|"D"f2 d2 d2|"A7"e3e e2|e2 f2 g2|"G"g3a g2|"A7"e6-|
e4 ef|"G"g4 gg|"Em"g2 a2 g2|"A7"f2 e4-|e4 AA|"D"d2 e2 f2|"G"g2 f2 g2|"A7"e3d c2|"D"d6-|d4:|

